X:716
T:Mrs. McLeod
T:Miss McLeod's Reel
R:Reel
B:The Athole Collection
M:C|
L:1/8
K:A
c/B/|A2a2 fefa|eccB c2 c>B|1 A2a2 fefa|ecBA B2Bc:|2 fafe fefg|afec B2B>c||
|:A/A/A (cA ecca|eccB c2cB|1 A/A/A (cA ecca|ecBA B2 (Bc:|2 fafe fefg|
faec BdcB||

